src/assets/obucheniye/icons/youtube.svg

<svg fill="none" height="40" viewBox="0 0 40 40" width="40" xmlns="http://www.w3.org/2000/svg"><rect height="39" rx="2.5" stroke="#fff" width="39" x=".5" y=".5"/><path d="m27.6088 26.0181h-1.4488l.0067-.8288c0-.3683.3072-.6696.6823-.6696h.0924c.3761 0 .6841.3013.6841.6696zm-5.4343-1.7761c-.3676 0-.6682.2433-.6682.5411v4.0309c0 .2973.3006.5399.6682.5399.369 0 .67-.2426.67-.5399v-4.0309c0-.2981-.301-.5411-.67-.5411zm8.8255-2.2547v7.6682c0 1.8394-1.6195 3.3445-3.5992 3.3445h-14.8013c-1.9803 0-3.5995-1.5051-3.5995-3.3445v-7.6682c0-1.8394 1.6192-3.3448 3.5995-3.3448h14.8013c1.9797 0 3.5992 1.5054 3.5992 3.3448zm-17.4131 8.5008-.0012-8.0776 1.8348.0006v-1.1969l-4.8911-.0072v1.1766l1.5268.0044v8.1001zm5.5-6.8744h-1.5298v4.3134c0 .624.0384.936-.0023 1.0461-.1244.3345-.6835.6898-.9014.0361-.037-.1144-.0044-.4596-.005-1.0524l-.0062-4.3432h-1.5212l.0047 4.275c.0012.6552-.015 1.1437.0053 1.3661.0372.3921.024.8491.3933 1.1102.6882.4883 2.0073-.0728 2.3373-.7707l-.0029.8906 1.2284.0015zm4.8936 4.9394-.0032-3.59c-.0012-1.3682-1.0404-2.1875-2.4511-1.0804l.0062-2.6691-1.528.0023-.0073 9.2127 1.2566-.0179.1144-.5737c1.6054 1.4505 2.6148.4564 2.6124-1.2839zm4.7875-.4758-1.1469.0061c-.0006.0448-.0024.0965-.0029.1528v.6304c0 .3374-.2831.6121-.6269.6121h-.2247c-.3444 0-.6274-.2747-.6274-.6121v-.0699-.6934-.8947h2.6265v-.9735c0-.7115-.0185-1.4228-.0783-1.8295-.1881-1.2868-2.022-1.491-2.9483-.8323-.2907.2057-.5128.481-.6418.8507-.1303.3701-.1951.8757-.1951 1.5179v2.1406c.0006 3.5586 4.3894 3.0556 3.8658-.0052zm-5.8837-11.6214c.079.1889.2016.3421.3679.4576.1643.1138.3743.171.626.171.2205 0 .4159-.0586.586-.1797.1696-.1204.3124-.3004.4292-.5405l-.0291.5911h1.7052v-7.14162h-1.3423v5.55822c0 .301-.2517.5474-.5594.5474-.3059 0-.5585-.2464-.5585-.5474v-5.55822h-1.401v4.81692c0 .6136.0115 1.0227.03 1.2301.019.206.0671.4036.146.5951zm-5.1673-4.0335c0-.6855.0581-1.2208.1733-1.6068.1162-.3845.3248-.6936.6269-.92671.3013-.23429.687-.35158 1.156-.35158.3946 0 .7325.07627 1.0147.22562.2836.15023.5024.34527.6541.58587.1546.2415.2596.4897.3156.7436.0572.2574.0854.6457.0854 1.1694v1.8062c0 .6624-.027 1.1497-.0795 1.4591-.0519.3103-.1634.598-.3362.8679-.1701.2669-.3898.4665-.6562.5939-.2692.1286-.5772.1915-.9251.1915-.3887 0-.7161-.0528-.9859-.1632-.2708-.1098-.4799-.2753-.6289-.4951-.1505-.2202-.2564-.4883-.3203-.8008-.0643-.3123-.0948-.7821-.0948-1.4081zm1.3355 2.8369c0 .4045.3057.7347.6779.7347.3726 0 .677-.3302.677-.7347v-3.8017c0-.4039-.3044-.7341-.677-.7341-.3722 0-.6779.3302-.6779.7341zm-4.7191 1.9197h1.6086l.0018-5.4773 1.9008-4.69217h-1.7594l-1.0106 3.48517-1.0249-3.4947h-1.7412l2.0222 4.7043z" fill="#fff"/></svg>

<svg width="40" height="40" viewBox="0 0 40 40" fill="none" xmlns="http://www.w3.org/2000/svg">
<rect x="0.5" y="0.5" width="39" height="39" rx="2.5" stroke="white"/>
<path d="M27.6088 26.0181H26.16L26.1667 25.1893C26.1667 24.821 26.4739 24.5197 26.849 24.5197H26.9414C27.3175 24.5197 27.6255 24.821 27.6255 25.1893L27.6088 26.0181ZM22.1745 24.242C21.8069 24.242 21.5063 24.4853 21.5063 24.7831V28.814C21.5063 29.1113 21.8069 29.3539 22.1745 29.3539C22.5435 29.3539 22.8445 29.1113 22.8445 28.814V24.7831C22.8445 24.485 22.5435 24.242 22.1745 24.242ZM31 21.9873V29.6555C31 31.4949 29.3805 33 27.4008 33H12.5995C10.6192 33 9 31.4949 9 29.6555V21.9873C9 20.1479 10.6192 18.6425 12.5995 18.6425H27.4008C29.3805 18.6425 31 20.1479 31 21.9873ZM13.5869 30.4881L13.5857 22.4105L15.4205 22.4111V21.2142L10.5294 21.207V22.3836L12.0562 22.388V30.4881H13.5869ZM19.0869 23.6137H17.5571V27.9271C17.5571 28.5511 17.5955 28.8631 17.5548 28.9732C17.4304 29.3077 16.8713 29.663 16.6534 29.0093C16.6164 28.8949 16.649 28.5497 16.6484 27.9569L16.6422 23.6137H15.121L15.1257 27.8887C15.1269 28.5439 15.1107 29.0324 15.131 29.2548C15.1682 29.6469 15.155 30.1039 15.5243 30.365C16.2125 30.8533 17.5316 30.2922 17.8616 29.5943L17.8587 30.4849L19.0871 30.4864L19.0869 23.6137ZM23.9805 28.5531L23.9773 24.9631C23.9761 23.5949 22.9369 22.7756 21.5262 23.8827L21.5324 21.2136L20.0044 21.2159L19.9971 30.4286L21.2537 30.4107L21.3681 29.837C22.9735 31.2875 23.9829 30.2934 23.9805 28.5531ZM28.768 28.0773L27.6211 28.0834C27.6205 28.1282 27.6187 28.1799 27.6182 28.2362V28.8666C27.6182 29.204 27.3351 29.4787 26.9913 29.4787H26.7666C26.4222 29.4787 26.1392 29.204 26.1392 28.8666V28.7967V28.1033V27.2086H28.7657V26.2351C28.7657 25.5236 28.7472 24.8123 28.6874 24.4056C28.4993 23.1188 26.6654 22.9146 25.7391 23.5733C25.4484 23.779 25.2263 24.0543 25.0973 24.424C24.967 24.7941 24.9022 25.2997 24.9022 25.9419V28.0825C24.9028 31.6411 29.2916 31.1381 28.768 28.0773ZM22.8843 16.4559C22.9633 16.6448 23.0859 16.798 23.2522 16.9135C23.4165 17.0273 23.6265 17.0845 23.8782 17.0845C24.0987 17.0845 24.2941 17.0259 24.4642 16.9048C24.6338 16.7844 24.7766 16.6044 24.8934 16.3643L24.8643 16.9554H26.5695V9.81378H25.2272V15.372C25.2272 15.673 24.9755 15.9194 24.6678 15.9194C24.3619 15.9194 24.1093 15.673 24.1093 15.372V9.81378H22.7083V14.6307C22.7083 15.2443 22.7198 15.6534 22.7383 15.8608C22.7573 16.0668 22.8054 16.2644 22.8843 16.4559ZM17.717 12.4224C17.717 11.7369 17.7751 11.2016 17.8903 10.8156C18.0065 10.4311 18.2151 10.122 18.5172 9.88889C18.8185 9.6546 19.2042 9.53731 19.6732 9.53731C20.0678 9.53731 20.4057 9.61358 20.6879 9.76293C20.9715 9.91316 21.1903 10.1082 21.342 10.3488C21.4966 10.5903 21.6016 10.8385 21.6576 11.0924C21.7148 11.3498 21.743 11.7381 21.743 12.2618V14.068C21.743 14.7304 21.716 15.2177 21.6635 15.5271C21.6116 15.8374 21.5001 16.1251 21.3273 16.395C21.1572 16.6619 20.9375 16.8615 20.6711 16.9889C20.4019 17.1175 20.0939 17.1804 19.746 17.1804C19.3573 17.1804 19.0299 17.1276 18.7601 17.0172C18.4893 16.9074 18.2802 16.7419 18.1312 16.5221C17.9807 16.3019 17.8748 16.0338 17.8109 15.7213C17.7466 15.409 17.7161 14.9392 17.7161 14.3132L17.717 12.4224ZM19.0525 15.2593C19.0525 15.6638 19.3582 15.994 19.7304 15.994C20.103 15.994 20.4074 15.6638 20.4074 15.2593V11.4576C20.4074 11.0537 20.103 10.7235 19.7304 10.7235C19.3582 10.7235 19.0525 11.0537 19.0525 11.4576V15.2593ZM14.3334 17.179H15.942L15.9438 11.7017L17.8446 7.00953H16.0852L15.0746 10.4947L14.0497 7H12.3085L14.3307 11.7043L14.3334 17.179Z" fill="white"/>
</svg>
